X: 25336
T: Manus Lunny's Terracotta Plower Pop
R: jig
M: 6/8
K: Gmajor
D[CE]D DEG|BGd BAG|GB/c/g edB|deg b2 a|
age ge/f/g|edB deg|age edB|dBA A:|
df/e/d A2 B|cBA BGe|df/e/d A2 f|ga/g/f gg/f/e|
dd/d/d a2 b|c'ba bge|gc'/b/a ge/d/a|dd/d/d d:|

